X: 21660
T: Kilmahog Sunday Afternoon
R: jig
M: 6/8
K: Dmajor
|:ABc d2A|edc dcB|ABc def|gfg e3|
ABc d2A|edc dcB|ABc def|edc d3:|
|:a2a fga|g2e fed|a2a fga|g2f e3|
a2a fga|g2e fed|ABc def|edc d3:|

